static/fa/svgs/solid/children.svg

<svg xmlns="http://www.w3.org/2000/svg" viewBox="0 0 640 512"><!--! Font Awesome Free 6.1.1 by @fontawesome - https://fontawesome.com License - https://fontawesome.com/license/free (Icons: CC BY 4.0, Fonts: SIL OFL 1.1, Code: MIT License) Copyright 2022 Fonticons, Inc.--><path d="M95.1 64c0-35.35 29.6-64 64-64 36.2 0 64 28.65 64 64s-27.8 64-64 64c-34.4 0-64-28.65-64-64zM88 480v-80H70.2c-10.92 0-18.63-10.7-15.18-21.1l31.14-93.4-28.66 37.8c-10.68 14.1-30.75 16.9-44.83 6.2-14.085-10.7-16.845-30.8-6.167-44.8L65.4 206.1C87.84 177.4 122.9 160 160 160c37.2 0 72.2 17.4 94.6 46.1l58.9 78.6c10.7 14 7.9 34.1-6.2 44.8-14 10.7-34.1 7.9-44.8-6.2l-28.6-37.7 30.2 93.3c4.3 10.4-3.4 21.1-14.3 21.1H232v80c0 17.7-14.3 32-32 32s-32-14.3-32-32v-80h-16v80c0 17.7-14.3 32-32 32s-32-14.3-32-32zM416 64c0-35.35 28.7-64 64-64s64 28.65 64 64-28.7 64-64 64-64-28.65-64-64zm56 320v96c0 17.7-14.3 32-32 32s-32-14.3-32-32V300.5L395.1 321c-9.4 15-29.2 19.5-45 10.1-14.1-9.4-18.6-29.2-9.2-45l51.7-81.2c17.6-28 48.3-45.8 81.2-45.8h12.4c33 0 63.6 17.8 81.2 45.8l51.7 81.2c9.4 15.8 4.9 35.6-10.1 45-14.9 9.4-34.7 4.9-44.1-10.1L552 300.5V480c0 17.7-14.3 32-32 32s-32-14.3-32-32v-96h-16z"/></svg>

<svg xmlns="http://www.w3.org/2000/svg" viewBox="0 0 640 512"><!--! Font Awesome Free 6.1.1 by @fontawesome - https://fontawesome.com License - https://fontawesome.com/license/free (Icons: CC BY 4.0, Fonts: SIL OFL 1.1, Code: MIT License) Copyright 2022 Fonticons, Inc. --><path d="M95.1 64C95.1 28.65 124.7 0 159.1 0C195.3 0 223.1 28.65 223.1 64C223.1 99.35 195.3 128 159.1 128C124.7 128 95.1 99.35 95.1 64zM88 480V400H70.2C59.28 400 51.57 389.3 55.02 378.9L86.16 285.5L57.5 323.3C46.82 337.4 26.75 340.2 12.67 329.5C-1.415 318.8-4.175 298.7 6.503 284.7L65.4 206.1C87.84 177.4 122.9 160 160 160C197.2 160 232.2 177.4 254.6 206.1L313.5 284.7C324.2 298.7 321.4 318.8 307.3 329.5C293.3 340.2 273.2 337.4 262.5 323.3L233.9 285.6L264.1 378.9C268.4 389.3 260.7 400 249.8 400H232V480C232 497.7 217.7 512 200 512C182.3 512 168 497.7 168 480V400H152V480C152 497.7 137.7 512 120 512C102.3 512 88 497.7 88 480H88zM416 64C416 28.65 444.7 0 480 0C515.3 0 544 28.65 544 64C544 99.35 515.3 128 480 128C444.7 128 416 99.35 416 64V64zM472 384V480C472 497.7 457.7 512 440 512C422.3 512 408 497.7 408 480V300.5L395.1 321C385.7 336 365.9 340.5 350.1 331.1C336 321.7 331.5 301.9 340.9 286.1L392.6 204.9C410.2 176.9 440.9 159.1 473.8 159.1H486.2C519.2 159.1 549.8 176.9 567.4 204.9L619.1 286.1C628.5 301.9 624 321.7 609 331.1C594.1 340.5 574.3 336 564.9 321L552 300.5V480C552 497.7 537.7 512 520 512C502.3 512 488 497.7 488 480V384L472 384z"/></svg>
